X: 8
T: The Flax In Bloom
R: reel
M: 4/4
L: 1/8
K: Dmaj
faaf dfaf| g2bg ecAg| fedc dafd | cdef gfge|
faaf afdf| gfgf edBF| A~F3 ABde| faeg fdd2|


Tune 748	Setting 748

